sprites/streets-v8/_svg/cinema-15.svg

<svg viewBox="-4 -4 23 23" width="23" height="23" data-reactid=".0.1.1.$cinema-15=1svg23.0.0"><rect x="-3" y="-3" rx="10.5" ry="10.5" width="21" height="21" stroke="#fff" style="stroke-linejoin:round;stroke-miterlimit:4px;" fill="#fff" stroke-width="2" data-reactid=".0.1.1.$cinema-15=1svg23.0.0.0"></rect><rect x="-3" y="-3" width="21" height="21" rx="10.5" ry="10.5" fill="#7f7874" data-reactid=".0.1.1.$cinema-15=1svg23.0.0.1"></rect><path fill="#fff" d="M 3.75,1.5 C 2.2312169,1.5 1,2.7312169 1,4.25 1.0008354,5.2826902 1.5801581,6.2278612 2.5,6.6972656 L 2.5,7 2,7 0.5,7 C 0.22300002,7 0,7.223 0,7.5 l 0,0.5175781 c 0,0.277 0.22300002,0.5 0.5,0.5 l 0.5,0 L 1,12 c 0,0.554 0.446,1 1,1 l 8,0 c 0.554,0 1,-0.446 1,-1 L 11,9.5 13,10 13.5,11 15,11 15,7 13.5,7 13,8 11,8.5 11,8 C 11,7.5346933 10.678986,7.1634482 10.25,7.0507812 l 0,-0.2402343 C 11.304896,6.3987579 11.99951,5.38242 12,4.25 12,2.7312169 10.768783,1.5 9.25,1.5 7.7312169,1.5 6.5,2.7312169 6.5,4.25 6.5008354,5.2826902 7.0801581,6.2278612 8,6.6972656 L 8,7 6.5,7 5,7 5,6.6992188 C 5.9204675,6.2294947 6.4998982,5.283393 6.5,4.25 6.5,2.7312169 5.2687831,1.5 3.75,1.5 Z m 0,2 c 0.4142135,3e-7 0.7499997,0.3357865 0.75,0.75 C 4.4999997,4.6642135 4.1642135,4.9999997 3.75,5 3.3357865,4.9999997 3.0000003,4.6642135 3,4.25 3.0000003,3.8357865 3.3357865,3.5000003 3.75,3.5 Z m 5.5,0 c 0.4142135,3e-7 0.7499997,0.3357865 0.75,0.75 -3e-7,0.4142135 -0.3357865,0.7499997 -0.75,0.75 -0.4142135,-3e-7 -0.7499997,-0.3357865 -0.75,-0.75 3e-7,-0.4142135 0.3357865,-0.7499997 0.75,-0.75 z" data-reactid=".0.1.1.$cinema-15=1svg23.0.0.3:$cinema-15=1svg-0-fill"></path></svg>

<?xml version="1.0" encoding="utf-8"?>
<!-- Generator: Adobe Illustrator 17.1.0, SVG Export Plug-In . SVG Version: 6.00 Build 0)  -->
<!DOCTYPE svg PUBLIC "-//W3C//DTD SVG 1.1//EN" "http://www.w3.org/Graphics/SVG/1.1/DTD/svg11.dtd">
<svg version="1.1"
	 id="svg2" xmlns:svg="http://www.w3.org/2000/svg" xmlns:cc="http://creativecommons.org/ns#" xmlns:dc="http://purl.org/dc/elements/1.1/" xmlns:rdf="http://www.w3.org/1999/02/22-rdf-syntax-ns#"
	 xmlns="http://www.w3.org/2000/svg" xmlns:xlink="http://www.w3.org/1999/xlink" x="0px" y="0px" width="23px" height="23px"
	 viewBox="0 0 23 23" enable-background="new 0 0 23 23" xml:space="preserve">
<ellipse id="ellipse4" fill="#FFFFFF" cx="11.5" cy="11.5" rx="11.5" ry="11.5"/>
<ellipse id="ellipse6" fill="#A9A199" cx="11.5" cy="11.5" rx="10.5" ry="10.5"/>
<g id="g8" transform="translate(4,4)">
	<path id="rect4952" fill="#FFFFFF" d="M3.8,1.5C2.2,1.5,1,2.7,1,4.2c0,1,0.6,2,1.5,2.4V7H2H0.5C0.2,7,0,7.2,0,7.5V8
		c0,0.3,0.2,0.5,0.5,0.5H1V12c0,0.6,0.4,1,1,1h8c0.6,0,1-0.4,1-1V9.5l2,0.5l0.5,1H15V7h-1.5L13,8l-2,0.5V8c0-0.5-0.3-0.8-0.8-0.9
		V6.8C11.3,6.4,12,5.4,12,4.2c0-1.5-1.2-2.8-2.8-2.8S6.5,2.7,6.5,4.2c0,1,0.6,2,1.5,2.4V7H6.5H5V6.7c0.9-0.5,1.5-1.4,1.5-2.4
		C6.5,2.7,5.3,1.5,3.8,1.5z M3.8,3.5c0.4,0,0.7,0.3,0.8,0.8C4.5,4.7,4.2,5,3.8,5C3.3,5,3,4.7,3,4.2C3,3.8,3.3,3.5,3.8,3.5z M9.2,3.5
		c0.4,0,0.8,0.3,0.8,0.8S9.7,5,9.2,5C8.8,5,8.5,4.7,8.5,4.2S8.8,3.5,9.2,3.5z M3.5,8h5C8.8,8,9,8.2,9,8.5S8.8,9,8.5,9h-5
		C3.2,9,3,8.8,3,8.5S3.2,8,3.5,8z"/>
</g>
</svg>
